neru-light-classic/22x22/places/folder-script.svg

<?xml version="1.0" encoding="UTF-8" standalone="no"?>
<svg
   xmlns:dc="http://purl.org/dc/elements/1.1/"
   xmlns:cc="http://creativecommons.org/ns#"
   xmlns:rdf="http://www.w3.org/1999/02/22-rdf-syntax-ns#"
   xmlns:svg="http://www.w3.org/2000/svg"
   xmlns="http://www.w3.org/2000/svg"
   xmlns:sodipodi="http://sodipodi.sourceforge.net/DTD/sodipodi-0.dtd"
   xmlns:inkscape="http://www.inkscape.org/namespaces/inkscape"
   width="22"
   height="22"
   version="1.1"
   viewBox="0 0 16 16"
   id="svg7"
   sodipodi:docname="folder-script.svg"
   inkscape:version="0.92.4 5da689c313, 2019-01-14">
  <metadata
     id="metadata11">
    <rdf:RDF>
      <cc:Work
         rdf:about="">
        <dc:format>image/svg+xml</dc:format>
        <dc:type
           rdf:resource="http://purl.org/dc/dcmitype/StillImage" />
      </cc:Work>
    </rdf:RDF>
  </metadata>
  <sodipodi:namedview
     pagecolor="#ffffff"
     bordercolor="#666666"
     borderopacity="1"
     objecttolerance="10"
     gridtolerance="10"
     guidetolerance="10"
     inkscape:pageopacity="0"
     inkscape:pageshadow="2"
     inkscape:window-width="769"
     inkscape:window-height="515"
     id="namedview9"
     showgrid="false"
     inkscape:zoom="10.727273"
     inkscape:cx="11"
     inkscape:cy="11"
     inkscape:window-x="0"
     inkscape:window-y="28"
     inkscape:window-maximized="0"
     inkscape:current-layer="svg7" />
  <defs
     id="defs3">
    <style
       id="current-color-scheme"
       type="text/css">
   .ColorScheme-Text { color:#5c616c; } .ColorScheme-Highlight { color:#5294e2; }
  </style>
  </defs>
  <path
     style="color:#5c616c;fill:#1e333d;stroke-width:0.83116883;fill-opacity:1"
     class="ColorScheme-Text"
     d="M 2.181818,2.1818182 V 13.818182 H 13.818182 V 2.1818182 Z m 3.3246753,1.6623376 h 0.8311689 v 0.8311689 h 0.4155844 c 0.5402597,0 0.9974026,0.3490909 1.171948,0.8311688 H 6.7532466 6.3376622 v 0.8311688 h 0.4155844 c 0.6898701,0 1.2467532,0.5568831 1.2467532,1.2467533 0,0.6898701 -0.5568831,1.2467532 -1.2467532,1.2467532 H 6.3376622 v 0.831169 H 5.5064933 V 8.8311688 H 5.0909089 C 4.5506492,8.8311688 4.0935063,8.4820779 3.9189609,8 h 1.171948 0.4155844 V 7.1688312 H 5.0909089 c -0.6898701,0 -1.2467532,-0.5568832 -1.2467532,-1.2467533 0,-0.6898701 0.5568831,-1.2467532 1.2467532,-1.2467532 H 5.5064933 Z M 5.0909089,5.5064935 c -0.2327273,0 -0.4155844,0.1828571 -0.4155844,0.4155844 0,0.2327273 0.1828571,0.4155844 0.4155844,0.4155844 H 5.5064933 V 5.5064935 Z M 6.3376622,7.1688312 V 8 h 0.4155844 c 0.2327272,0.00831 0.4155844,-0.1828572 0.4155844,-0.4155844 0,-0.2327273 -0.1828572,-0.4155844 -0.4155844,-0.4155844 z m 2.4935064,1.6623376 h 3.3246754 v 0.831169 H 8.8311686 Z"
     id="path5"
     inkscape:connector-curvature="0" />
</svg>

<svg xmlns="http://www.w3.org/2000/svg" width="22" height="22" version="1.1" viewBox="0 0 16 16" id="svg7"><defs id="defs3"><style id="current-color-scheme" type="text/css"></style></defs><path d="M2.182 2.182v11.636h11.636V2.182zm3.324 1.662h.832v.831h.415c.54 0 .998.35 1.172.831H6.338v.832h.415c.69 0 1.247.557 1.247 1.246 0 .69-.557 1.247-1.247 1.247h-.415v.831h-.832v-.83h-.415c-.54 0-.997-.35-1.172-.832h1.587v-.831h-.415c-.69 0-1.247-.557-1.247-1.247 0-.69.557-1.247 1.247-1.247h.415zm-.415 1.662a.412.412 0 0 0-.416.416c0 .233.183.416.416.416h.415v-.832zM6.338 7.17V8h.415a.406.406 0 0 0 .416-.416.412.412 0 0 0-.416-.415zM8.83 8.83h3.325v.831H8.83z" id="path5" color="#5c616c" fill="#1e333d" stroke-width=".831" fill-opacity="1"/></svg>
